icons/1_Primary/Blockstream Green.svg

<svg xmlns="http://www.w3.org/2000/svg" viewBox="0 0 1024 1024">
   <circle cx="512" cy="512" r="512" style="fill:#00b45a"/>
   <path d="M350.3 550.8v-234H624V271H304v234.7c0 47 33.2 85.3 76.4 121.2-18.8-21-29.4-48-30.1-76.1zM672 601.7c0 41.9-55.8 82.9-112 122.7-56.5-39.8-112-79.8-112-122.7V415h224v186.7zM560.5 367H400v234.7c0 75.4 85.1 128 160 181.3 75.2-53.3 160-105.9 160-181.3V367H560.5z" style="fill:#fff"/>
</svg>

<svg width="1024" height="1024" viewBox="0 0 1024 1024" fill="none" xmlns="http://www.w3.org/2000/svg">
<g clip-path="url(#clip0_2_1689)">
<path d="M512 1024C794.77 1024 1024 794.77 1024 512C1024 229.23 794.77 0 512 0C229.23 0 0 229.23 0 512C0 794.77 229.23 1024 512 1024Z" fill="#98DC9A"/>
<path d="M350.3 550.8V316.8H624V271H304V505.7C304 552.7 337.2 591 380.4 626.9C361.6 605.9 351 578.9 350.3 550.8ZM672 601.7C672 643.6 616.2 684.6 560 724.4C503.5 684.6 448 644.6 448 601.7V415H672V601.7ZM560.5 367H400V601.7C400 677.1 485.1 729.7 560 783C635.2 729.7 720 677.1 720 601.7V367H560.5Z" fill="white"/>
</g>
<defs>
<clipPath id="clip0_2_1689">
<rect width="1024" height="1024" fill="white"/>
</clipPath>
</defs>
</svg>
